static/assets/images/logos/monochrome/loconet.svg

<svg height="88" width="111" xmlns="http://www.w3.org/2000/svg"><g fill="none"><path d="M2.057 50.54C.821 49.244 0 47.38 0 45.446v-12.44h3.724V45.39c0 1.02.3 1.877.996 2.594.698.72 1.532 1.003 2.466 1.003h4.91v3.68H7.16c-2.159-.002-3.9-.864-5.102-2.126zm21.537-12.248c.875.38 1.667.927 2.331 1.612a7.641 7.641 0 0 1 1.58 2.435c.386.936.58 1.954.58 3.052 0 1.088-.194 2.096-.58 3.023a7.594 7.594 0 0 1-1.58 2.414 7.228 7.228 0 0 1-2.33 1.598 7.11 7.11 0 0 1-2.85.575 7.095 7.095 0 0 1-2.855-.575 7.17 7.17 0 0 1-2.317-1.598A7.656 7.656 0 0 1 14 48.413c-.387-.927-.58-1.935-.58-3.023 0-1.098.193-2.116.58-3.052a7.704 7.704 0 0 1 1.572-2.435 7.214 7.214 0 0 1 2.318-1.613 7.01 7.01 0 0 1 2.856-.58c1.011 0 1.96.192 2.848.58zM22.125 49.06a3.47 3.47 0 0 0 1.145-.802c.331-.348.59-.763.78-1.245.193-.51.289-1.053.282-1.599 0-.59-.094-1.136-.283-1.636a3.686 3.686 0 0 0-1.924-2.107c-.432-.2-.892-.3-1.38-.3-.487 0-.953.1-1.4.3-.446.2-.827.476-1.144.828a3.99 3.99 0 0 0-.759 1.28 4.604 4.604 0 0 0-.283 1.635c0 .583.095 1.116.283 1.6.188.481.441.896.759 1.244.317.348.698.615 1.145.802.446.188.912.28 1.4.28a3.43 3.43 0 0 0 1.38-.28zm53.178-15.492c.865.361 1.544.87 2.207 1.525a7.03 7.03 0 0 1 1.489 2.235c.367.873.634 1.846.634 3.12v12.223h-3.725V40.073c0-.568-.228-1.525-.89-2.267a3.34 3.34 0 0 0-2.503-1.124 3.281 3.281 0 0 0-2.476 1.124c-.556.63-.89 1.515-.89 2.267v12.598h-3.724v-12.22c0-1.187.234-2.305.627-3.15.406-.87.842-1.57 1.481-2.212.676-.679 1.36-1.164 2.216-1.527A6.782 6.782 0 0 1 72.515 33c1.02 0 1.88.19 2.788.568zm10.524 7.504h7.945v3.487h-7.945v.886c0 .97.293 1.693.767 2.28a3.314 3.314 0 0 0 2.735 1.262h5.877v3.68h-5.918c-1.298 0-2.335-.267-3.31-.773-.729-.38-1.438-.914-1.936-1.487-.566-.652-.877-1.11-1.228-1.84a7.548 7.548 0 0 1-.712-3.177v-5.12c0-.942.203-1.947.597-2.874.337-.794.892-1.654 1.42-2.203.53-.55 1.253-1.138 1.996-1.484.902-.42 1.826-.704 2.838-.704h6.253v3.68H89.33c-.988 0-1.848.322-2.51 1.015a3.656 3.656 0 0 0-.992 2.486zm19.918-4.39v15.986h-3.725V36.682h-5.256v-3.677H111v3.677z" fill="#000000"/><path d="M47.292 35.843L45.843 37.3a7.485 7.485 0 0 0-2.335-1.594 7.256 7.256 0 0 0-2.933-.598 7.25 7.25 0 0 0-2.941.598 7.426 7.426 0 0 0-2.387 1.66 7.938 7.938 0 0 0-1.62 2.51c-.397.963-.595 2.011-.595 3.141 0 1.121.198 2.16.596 3.114a7.879 7.879 0 0 0 1.62 2.486 7.316 7.316 0 0 0 5.326 2.238c1.042 0 2.02-.198 2.934-.592a7.448 7.448 0 0 0 1.908-1.185l1.47 1.477a9.444 9.444 0 0 1-2.617 1.676 9.3 9.3 0 0 1-3.722.75c-1.334 0-2.578-.25-3.731-.75a9.358 9.358 0 0 1-3.028-2.088 10 10 0 0 1-2.055-3.155c-.505-1.212-.757-2.528-.757-3.95 0-1.435.252-2.764.757-3.988a10.073 10.073 0 0 1 2.055-3.182 9.43 9.43 0 0 1 3.028-2.107c1.153-.507 2.397-.76 3.73-.76 1.322 0 2.563.252 3.723.76a9.507 9.507 0 0 1 3.023 2.081zm10.536 2.448a7.27 7.27 0 0 1 2.331 1.612 7.641 7.641 0 0 1 1.58 2.435c.386.937.579 1.954.579 3.052 0 1.088-.193 2.096-.58 3.023a7.587 7.587 0 0 1-1.579 2.414 7.21 7.21 0 0 1-2.33 1.598 7.1 7.1 0 0 1-2.85.575 7.09 7.09 0 0 1-2.855-.575 7.15 7.15 0 0 1-2.317-1.598 7.644 7.644 0 0 1-1.573-2.414c-.386-.927-.579-1.935-.579-3.023 0-1.098.193-2.115.58-3.052.387-.937.91-1.748 1.572-2.435s1.434-1.225 2.317-1.612 1.835-.58 2.856-.58a7.05 7.05 0 0 1 2.848.58zm-.924 12.23a4.835 4.835 0 0 0 1.596-1.119 5.26 5.26 0 0 0 1.087-1.736c.263-.674.394-1.416.394-2.229 0-.825-.131-1.586-.394-2.283a5.14 5.14 0 0 0-2.683-2.938 4.53 4.53 0 0 0-1.924-.418c-.68 0-1.331.14-1.953.418a4.722 4.722 0 0 0-1.597 1.155 5.55 5.55 0 0 0-1.058 1.783 6.419 6.419 0 0 0-.394 2.283c0 .813.131 1.555.394 2.23a5.526 5.526 0 0 0 1.058 1.735c.443.486.975.86 1.597 1.12a4.99 4.99 0 0 0 1.953.39c.68 0 1.32-.13 1.924-.39z" fill="#000000"/></g></svg>

<?xml version="1.0" encoding="UTF-8" standalone="no"?>
<!DOCTYPE svg PUBLIC "-//W3C//DTD SVG 1.1//EN" "http://www.w3.org/Graphics/SVG/1.1/DTD/svg11.dtd">
<svg viewBox="0 0 111 21" version="1.1" xmlns="http://www.w3.org/2000/svg" xmlns:xlink="http://www.w3.org/1999/xlink" xml:space="preserve" xmlns:serif="http://www.serif.com/" style="fill-rule:evenodd;clip-rule:evenodd;stroke-linejoin:round;stroke-miterlimit:2;">
    <g transform="matrix(1,0,0,1,0,-32.9997)">
        <g>
            <path d="M2.057,50.54C0.821,49.244 0,47.38 0,45.446L0,33.006L3.724,33.006L3.724,45.39C3.724,46.41 4.024,47.267 4.72,47.984C5.418,48.704 6.252,48.987 7.186,48.987L12.096,48.987L12.096,52.667L7.16,52.667C5.001,52.665 3.26,51.803 2.058,50.541L2.057,50.54ZM23.594,38.292C24.469,38.672 25.261,39.219 25.925,39.904C26.602,40.607 27.139,41.434 27.505,42.339C27.891,43.275 28.085,44.293 28.085,45.391C28.085,46.479 27.891,47.487 27.505,48.414C27.137,49.312 26.601,50.132 25.925,50.828C25.261,51.509 24.469,52.052 23.595,52.426C22.695,52.812 21.724,53.008 20.745,53.001C19.764,53.009 18.792,52.813 17.89,52.426C17.02,52.052 16.232,51.508 15.573,50.828C14.901,50.13 14.367,49.31 14,48.413C13.613,47.486 13.42,46.478 13.42,45.39C13.42,44.292 13.613,43.274 14,42.338C14.365,41.434 14.899,40.608 15.572,39.903C16.231,39.218 17.019,38.67 17.89,38.29C18.791,37.899 19.764,37.701 20.746,37.71C21.757,37.71 22.706,37.902 23.594,38.29L23.594,38.292ZM22.125,49.06C22.557,48.873 22.947,48.6 23.27,48.258C23.601,47.91 23.86,47.495 24.05,47.013C24.243,46.503 24.339,45.96 24.332,45.414C24.332,44.824 24.238,44.278 24.049,43.778C23.717,42.846 23.023,42.086 22.125,41.671C21.693,41.471 21.233,41.371 20.745,41.371C20.258,41.371 19.792,41.471 19.345,41.671C18.899,41.871 18.518,42.147 18.201,42.499C17.87,42.874 17.612,43.309 17.442,43.779C17.249,44.302 17.154,44.856 17.159,45.414C17.159,45.997 17.254,46.53 17.442,47.014C17.63,47.495 17.883,47.91 18.201,48.258C18.518,48.606 18.899,48.873 19.346,49.06C19.792,49.248 20.258,49.34 20.746,49.34C21.22,49.343 21.69,49.248 22.126,49.06L22.125,49.06ZM75.303,33.568C76.168,33.929 76.847,34.438 77.51,35.093C78.145,35.735 78.651,36.494 78.999,37.328C79.366,38.201 79.633,39.174 79.633,40.448L79.633,52.671L75.908,52.671L75.908,40.073C75.908,39.505 75.68,38.548 75.018,37.806C74.384,37.09 73.471,36.681 72.515,36.682C71.566,36.681 70.663,37.091 70.039,37.806C69.483,38.436 69.149,39.321 69.149,40.073L69.149,52.671L65.425,52.671L65.425,40.451C65.425,39.264 65.659,38.146 66.052,37.301C66.458,36.431 66.894,35.731 67.533,35.089C68.209,34.41 68.893,33.925 69.749,33.562C70.621,33.183 71.564,32.991 72.515,33C73.535,33 74.395,33.19 75.303,33.568ZM85.827,41.072L93.772,41.072L93.772,44.559L85.827,44.559L85.827,45.445C85.827,46.415 86.12,47.138 86.594,47.725C87.25,48.559 88.269,49.029 89.329,48.987L95.206,48.987L95.206,52.667L89.288,52.667C87.99,52.667 86.953,52.4 85.978,51.894C85.249,51.514 84.54,50.98 84.042,50.407C83.476,49.755 83.165,49.297 82.814,48.567C82.348,47.572 82.105,46.488 82.102,45.39L82.102,40.27C82.102,39.328 82.305,38.323 82.699,37.396C83.036,36.602 83.591,35.742 84.119,35.193C84.649,34.643 85.372,34.055 86.115,33.709C87.017,33.289 87.941,33.005 88.953,33.005L95.206,33.005L95.206,36.685L89.33,36.685C88.342,36.685 87.482,37.007 86.82,37.7C86.187,38.373 85.833,39.262 85.828,40.186L85.827,41.072ZM105.745,36.682L105.745,52.668L102.02,52.668L102.02,36.682L96.764,36.682L96.764,33.005L111,33.005L111,36.682L105.745,36.682Z" style="fill-rule:nonzero;"/>
            <path d="M47.292,35.843L45.843,37.3C45.173,36.625 44.381,36.084 43.508,35.706C42.583,35.305 41.584,35.101 40.575,35.108C39.564,35.1 38.562,35.304 37.634,35.706C36.737,36.097 35.925,36.661 35.247,37.366C34.553,38.093 34.003,38.944 33.627,39.876C33.23,40.839 33.032,41.887 33.032,43.017C33.032,44.138 33.23,45.177 33.628,46.131C34.006,47.055 34.555,47.898 35.248,48.617C36.641,50.061 38.568,50.871 40.574,50.855C41.616,50.855 42.594,50.657 43.508,50.263C44.2,49.967 44.844,49.567 45.416,49.078L46.886,50.555C46.112,51.254 45.228,51.821 44.269,52.231C43.093,52.734 41.826,52.99 40.547,52.981C39.213,52.981 37.969,52.731 36.816,52.231C35.679,51.742 34.649,51.032 33.788,50.143C32.909,49.231 32.212,48.16 31.733,46.988C31.228,45.776 30.976,44.46 30.976,43.038C30.976,41.603 31.228,40.274 31.733,39.05C32.211,37.869 32.908,36.789 33.788,35.868C34.649,34.973 35.678,34.257 36.816,33.761C37.969,33.254 39.213,33.001 40.546,33.001C41.868,33.001 43.109,33.253 44.269,33.761C45.402,34.252 46.429,34.959 47.292,35.842L47.292,35.843ZM57.828,38.291C58.703,38.67 59.495,39.218 60.159,39.903C60.836,40.606 61.373,41.433 61.739,42.338C62.125,43.275 62.318,44.292 62.318,45.39C62.318,46.478 62.125,47.486 61.738,48.413C61.371,49.311 60.835,50.131 60.159,50.827C59.495,51.508 58.703,52.051 57.829,52.425C56.929,52.811 55.958,53.007 54.979,53C53.998,53.008 53.026,52.812 52.124,52.425C51.253,52.051 50.466,51.508 49.807,50.827C49.134,50.129 48.601,49.31 48.234,48.413C47.848,47.486 47.655,46.478 47.655,45.39C47.655,44.292 47.848,43.275 48.235,42.338C48.622,41.401 49.145,40.59 49.807,39.903C50.469,39.216 51.241,38.678 52.124,38.291C53.007,37.904 53.959,37.711 54.98,37.711C55.959,37.704 56.929,37.902 57.828,38.291ZM56.904,50.521C57.506,50.26 58.049,49.879 58.5,49.402C58.973,48.9 59.342,48.31 59.587,47.666C59.85,46.992 59.981,46.25 59.981,45.437C59.981,44.612 59.85,43.851 59.587,43.154C59.124,41.855 58.156,40.795 56.904,40.216C56.301,39.937 55.644,39.795 54.98,39.798C54.3,39.798 53.649,39.938 53.027,40.216C52.419,40.484 51.875,40.878 51.43,41.371C50.968,41.894 50.61,42.498 50.372,43.154C50.103,43.885 49.97,44.658 49.978,45.437C49.978,46.25 50.109,46.992 50.372,47.667C50.614,48.306 50.973,48.894 51.43,49.402C51.873,49.888 52.405,50.262 53.027,50.522C53.645,50.782 54.309,50.915 54.98,50.912C55.66,50.912 56.3,50.782 56.904,50.522L56.904,50.521Z" style="fill-rule:nonzero;"/>
        </g>
    </g>
</svg>
